X:19079
T:Xiraldilla (CT 420) (Arrg.)
R:Xiraldilla
C:Tradicional
S:Msica Tradicional Asturiana, (C) Tello & Tito. Asturies, 2001.
S:http://pagina.de/MusTradAst <telloytito@asturies.org>
N:Xiraldilla, transcrita en Uviu
O:Uviu
A:Asturies
G:Arrg.
Z:Cancioneru de Torner 420
M:2/4
L:1/8
Q:1/4=160
W:cmo te va con la pluma
W:de la verde pava
W:Bien la pelabas,
W:que llegaba la pluma
W:donde yo estaba.
W:Ai, morena, salada!
W:Mi pensamiento,
W:si piensas que en t piensa
W:mi pensamiento,
W:piensas en una cosa
W:que yo no pienso.
W:Ai, morena, salada!
K:Cm
|"Cm"c2 cc|"Cm"G2 cc|"Cm"cc =Bc|"Gm"d2 c=B|"Cm"c4|
"Bb"d2 fe|"Gm"d3 c|"Gm"d2 d=B|"Cm"G2 cc|"Cm"c4|
"Gm"_B2 BB|"Gm"B3 A|"Fm"c2 BA|"Gm"G2 FA|"Gm"G4|
"Bb"d2 fe|"Gm"d3 c|"Gm"d2 d=B|"Cm"G2 cc|"Cm"c4|
"Bb"d2 fe|"Gm"d3 c|"Gm"d2 d=B|"Cm"G2 cc|"Cm"c4|
"Gm"_B2 BB|"Gm"B3 A|"Fm"c2 BA|"Gm"G2 FA|"Cm"G4||
